picto/aluminium-recycling-framed.svg

<svg class="color-immutable" width="30" height="30" viewBox="0 0 30 30" fill="none" xmlns="http://www.w3.org/2000/svg"><path d="M29.9999 0H0V29.9999H29.9999V0Z" fill="#2D327D"/><path d="M25.4999 2.99999C26.3249 2.99999 26.9999 3.67499 26.9999 4.49999V25.4999C26.9999 26.3249 26.3249 26.9999 25.4999 26.9999H4.49999C3.67499 26.9999 2.99999 26.3249 2.99999 25.4999V4.49999C2.99999 3.67499 3.67499 2.99999 4.49999 2.99999H25.4999ZM25.4999 2.62499H4.49999C3.46612 2.62499 2.62499 3.46612 2.62499 4.49999V25.4999C2.62499 26.5338 3.46612 27.3749 4.49999 27.3749H25.4999C26.5338 27.3749 27.3749 26.5338 27.3749 25.4999V4.49999C27.3749 3.46612 26.5338 2.62499 25.4999 2.62499Z" fill="white"/><path fill-rule="evenodd" clip-rule="evenodd" d="M7.07944 12.1166C7.06466 12.0914 7.04974 12.0663 7.03504 12.041C6.70564 11.4746 6.37609 10.9083 6.04692 10.3418C5.98594 10.2369 5.98302 10.1328 6.04617 10.0254C6.22009 9.72988 6.39139 9.43288 6.56367 9.13648C6.56787 9.12928 6.57147 9.12185 6.57739 9.11075C6.39897 9.00545 6.22122 8.9006 6.04347 8.79575C6.04384 8.79373 6.04422 8.7917 6.04467 8.78975C6.05344 8.78975 6.06229 8.78975 6.07107 8.78975C6.63222 8.78975 7.19336 8.78983 7.75451 8.78953C7.77326 8.78953 7.78691 8.7914 7.79809 8.81068C8.08526 9.30433 8.37319 9.79745 8.66096 10.2907C8.66404 10.2961 8.66674 10.3016 8.67438 10.316C8.48861 10.209 8.31094 10.1067 8.13169 10.0035C8.12449 10.0154 8.11849 10.0251 8.11279 10.035C7.78976 10.5941 7.46704 11.1534 7.14356 11.7122C7.07344 11.8333 7.04749 11.96 7.08364 12.0971C7.08521 12.103 7.08491 12.1094 7.08544 12.1156C7.08334 12.1159 7.08139 12.1162 7.07944 12.1166Z" fill="white"/><path fill-rule="evenodd" clip-rule="evenodd" d="M12.0721 7.07159C12.2508 6.96846 12.4265 6.86706 12.6111 6.76049C12.6035 6.77669 12.6005 6.78464 12.5963 6.79191C12.3164 7.28001 12.0364 7.76811 11.7567 8.25636C11.7481 8.27143 11.7391 8.27878 11.7204 8.27886C11.1497 8.28036 10.5791 8.28253 10.0084 8.28456C10.0033 8.28456 9.99824 8.28403 9.98324 8.28328C10.1659 8.17633 10.3411 8.07381 10.5185 7.96986C10.5113 7.95688 10.5054 7.94601 10.4992 7.93528C10.1806 7.37961 9.86152 6.82431 9.5439 6.26811C9.4716 6.14159 9.3738 6.05024 9.22957 6.01454C9.22582 6.01364 9.22252 6.01071 9.21165 6.00456C9.23017 6.00456 9.24097 6.00456 9.25177 6.00456C9.8961 6.00291 10.5405 6.00096 11.1848 5.99991C11.2435 5.99984 11.3028 6.00029 11.3605 6.00891C11.4431 6.02129 11.4991 6.07386 11.5399 6.14504C11.7137 6.44909 11.8881 6.75276 12.0623 7.05659C12.065 7.06124 12.0681 7.06536 12.0721 7.07159Z" fill="white"/><path fill-rule="evenodd" clip-rule="evenodd" d="M10.8796 12.9481C10.8796 13.1564 10.8796 13.3604 10.8796 13.5645C10.877 13.5651 10.8744 13.5659 10.8717 13.5666C10.8669 13.5596 10.8615 13.553 10.8573 13.5457C10.5769 13.059 10.2966 12.5723 10.0161 12.0857C10.0077 12.0711 10.0041 12.0601 10.0139 12.0432C10.3 11.5452 10.5855 11.0469 10.8711 10.5487C10.8726 10.5461 10.8749 10.5438 10.8801 10.5371C10.8801 10.7456 10.8801 10.9497 10.8801 11.1591C10.8954 11.1591 10.9074 11.1591 10.9195 11.1591C11.5629 11.1591 12.2062 11.159 12.8496 11.1594C12.9928 11.1595 13.1181 11.1159 13.2213 11.0144C13.2247 11.011 13.2288 11.0084 13.2401 10.9995C13.2303 11.0175 13.2252 11.0274 13.2197 11.037C12.8964 11.5998 12.5733 12.1626 12.2495 12.7249C12.2208 12.7748 12.1911 12.825 12.1551 12.8694C12.1062 12.9296 12.0362 12.9507 11.9607 12.9507C11.788 12.9506 11.6154 12.9486 11.4427 12.9482C11.269 12.9477 11.0952 12.9481 10.9215 12.9481C10.9099 12.9481 10.8985 12.9481 10.8796 12.9481Z" fill="white"/><path fill-rule="evenodd" clip-rule="evenodd" d="M9.59049 11.1531C9.59049 11.7493 9.59049 12.3406 9.59049 12.9354C9.57744 12.9354 9.56619 12.9354 9.55487 12.9354C9.14004 12.9354 8.72492 12.9453 8.31047 12.9325C7.93577 12.921 7.65227 12.7458 7.49162 12.397C7.42307 12.2482 7.39022 12.0912 7.41385 11.9272C7.4209 11.8783 7.43627 11.8276 7.46035 11.7848C7.57472 11.5812 7.69375 11.3803 7.80999 11.1778C7.82109 11.1585 7.83317 11.1526 7.85454 11.1526C8.42207 11.1531 8.98959 11.1531 9.55704 11.1531C9.56732 11.1531 9.57759 11.1531 9.59049 11.1531Z" fill="white"/><path fill-rule="evenodd" clip-rule="evenodd" d="M11.1991 9.31647C11.7124 9.01932 12.2236 8.72337 12.7366 8.42652C12.7439 8.43822 12.7503 8.44767 12.756 8.4575C12.9641 8.8145 13.1802 9.16722 13.3776 9.53007C13.5166 9.78552 13.5446 10.0591 13.4223 10.3351C13.3387 10.5236 13.2097 10.6719 13.0318 10.7766C12.9571 10.8206 12.8774 10.8449 12.7891 10.8441C12.5617 10.8421 12.3343 10.8432 12.1069 10.8437C12.0889 10.8437 12.0766 10.8411 12.0663 10.8231C11.7805 10.3264 11.494 9.83007 11.2076 9.33372C11.2052 9.32922 11.2031 9.32442 11.1991 9.31647Z" fill="white"/><path fill-rule="evenodd" clip-rule="evenodd" d="M7.25755 7.76983C7.31275 7.67271 7.36577 7.57948 7.41872 7.48633C7.57675 7.20846 7.72997 6.92766 7.89415 6.65346C8.03605 6.41654 8.24785 6.26894 8.5234 6.22709C8.73985 6.19424 8.94677 6.23151 9.13787 6.34244C9.21099 6.38489 9.27062 6.44046 9.3133 6.51509C9.42647 6.71324 9.54152 6.91034 9.65642 7.10751C9.66639 7.12468 9.66812 7.13714 9.65754 7.15574C9.37487 7.64946 9.09302 8.14363 8.81102 8.63781C8.80742 8.64411 8.8036 8.65033 8.79745 8.66068C8.28452 8.36398 7.77265 8.06781 7.25755 7.76983Z" fill="white"/><path d="M17.5994 10.878C17.5222 10.9374 17.4562 11.0112 17.4067 11.097L12.4826 19.6257L18.9778 23.3757L23.9014 14.8476C23.951 14.7617 23.9826 14.6675 23.9953 14.5707L17.5994 10.878Z" fill="white"/><path d="M23.6869 12.8134C23.6658 12.7074 23.6001 12.6157 23.5066 12.5617L22.3569 11.8979L22.6381 11.4108C22.7417 11.2315 22.6802 11.0021 22.5009 10.8985L21.5266 10.336C21.3473 10.2325 21.118 10.294 21.0144 10.4733L20.7331 10.9604L19.5796 10.2944C19.4858 10.2403 19.3732 10.2293 19.2708 10.2643L18.484 10.5332L23.8494 13.6309L23.6869 12.8134ZM21.0578 11.1479C21.2131 10.8789 21.5572 10.7867 21.8262 10.942C22.0952 11.0974 22.1874 11.4414 22.0321 11.7104L21.2957 11.2852L21.0578 11.1479Z" fill="white"/><path d="M12.8239 21.443C12.8533 21.5286 12.9127 21.6006 12.991 21.6459L16.9702 23.9433C17.0483 23.9885 17.1401 24.0038 17.2288 23.9867L18.2224 23.795L12.4958 20.4887L12.8239 21.443Z" fill="white"/></svg>

<svg class="color-immutable" width="30" height="30" viewBox="0 0 30 30" fill="none" xmlns="http://www.w3.org/2000/svg"><path d="M30 0H0v30h30V0Z" fill="#2D327D"/><path d="M25.5 3c.825 0 1.5.675 1.5 1.5v21c0 .825-.675 1.5-1.5 1.5h-21c-.825 0-1.5-.675-1.5-1.5v-21C3 3.675 3.675 3 4.5 3h21Zm0-.375h-21A1.877 1.877 0 0 0 2.625 4.5v21c0 1.034.841 1.875 1.875 1.875h21a1.877 1.877 0 0 0 1.875-1.875v-21A1.877 1.877 0 0 0 25.5 2.625Z" fill="#fff"/><path fill-rule="evenodd" clip-rule="evenodd" d="m7.08 12.117-.045-.076-.988-1.7a.292.292 0 0 1 0-.316c.173-.295.344-.592.517-.889l.013-.025-.534-.315.002-.006h1.71c.018 0 .032.001.043.02l.863 1.48.013.026-.542-.313-.02.032c-.322.56-.645 1.118-.968 1.677a.49.49 0 0 0-.06.385l.001.019a.1.1 0 0 0-.006 0ZM12.072 7.072l.54-.312c-.008.017-.011.025-.016.032l-.84 1.464c-.008.015-.017.023-.036.023l-1.712.006-.025-.002.535-.313-.019-.035-.955-1.667a.491.491 0 0 0-.314-.253c-.004-.001-.007-.004-.018-.01h.04L11.185 6c.058 0 .118 0 .175.009.083.012.14.065.18.136l.522.912.01.015ZM10.88 12.948v.617c-.003 0-.006 0-.008.002l-.015-.021-.84-1.46c-.01-.015-.013-.026-.003-.043l.857-1.494.01-.012v.622h1.968a.506.506 0 0 0 .372-.145l.02-.014-.021.037-.97 1.688c-.03.05-.059.1-.095.144-.049.06-.119.082-.194.082-.173 0-.346-.002-.518-.003H10.88Z" fill="#fff"/><path fill-rule="evenodd" clip-rule="evenodd" d="M9.59 11.153v1.782h-.035c-.415 0-.83.01-1.245-.003-.374-.011-.658-.186-.818-.535a.827.827 0 0 1-.078-.47.417.417 0 0 1 .046-.142c.115-.204.234-.405.35-.607.011-.02.023-.025.045-.025H9.59ZM11.2 9.316l1.537-.89.019.031c.208.357.424.71.622 1.073a.876.876 0 0 1 .044.805.942.942 0 0 1-.39.442.46.46 0 0 1-.243.067c-.227-.002-.455 0-.682 0-.018 0-.03-.003-.04-.02l-.86-1.49-.008-.018ZM7.258 7.77l.16-.284c.159-.278.312-.558.476-.833a.859.859 0 0 1 .63-.426.92.92 0 0 1 .614.115.464.464 0 0 1 .175.173c.113.198.229.395.343.593.01.017.012.03.002.048-.283.493-.565.988-.847 1.482l-.014.023-1.54-.891Z" fill="#fff"/><path d="M17.6 10.878a.749.749 0 0 0-.193.219l-4.924 8.529 6.495 3.75 4.923-8.528a.748.748 0 0 0 .094-.277L17.6 10.878ZM23.687 12.813a.375.375 0 0 0-.18-.251l-1.15-.664.281-.487a.375.375 0 0 0-.137-.512l-.974-.563a.375.375 0 0 0-.513.137l-.28.487-1.154-.666a.375.375 0 0 0-.31-.03l-.786.27 5.365 3.097-.162-.818Zm-2.63-1.665a.563.563 0 0 1 .975.562l-.736-.425-.238-.137ZM12.824 21.443c.03.086.089.158.167.203l3.98 2.297c.077.045.17.06.258.044l.993-.192-5.726-3.306.328.954Z" fill="#fff"/></svg>
